src/assets/logos/bloomberg.svg

<svg height="61" viewBox="0 0 301 61" width="301" xmlns="http://www.w3.org/2000/svg"><path d="m7.897 7.813v11.289h7.208c5.271 0 7.897-2.257 7.897-5.581 0-3.825-2.626-5.708-8.585-5.708zm-7.897 37.61v-44.376h17.297c6.707 0 13.61 3.069 13.61 11.157 0 5.016-3.147 8.339-7.71 9.706v.132c5.577.634 9.579 5.016 9.579 10.724 0 9.657-8.398 12.657-16.796 12.657zm7.897-19.555v12.789h7.267c4.072 0 9.726-.694 9.726-6.515 0-4.642-3.019-6.274-9.411-6.274zm30.103-25.868h7v46h-7zm20.011 30.382c0 4.701 3.323 9.023 8.841 9.023 5.517 0 8.831-4.323 8.831-9.023s-3.314-9.022-8.831-9.022-8.841 4.321-8.841 9.022zm-7.523 0c0-9.465 7.267-15.799 16.364-15.798 9.087 0 16.364 6.332 16.364 15.798s-7.278 15.789-16.364 15.789c-9.097 0-16.364-6.324-16.364-15.789zm43.643 0c0 4.701 3.324 9.023 8.841 9.023s8.831-4.323 8.831-9.023-3.314-9.022-8.831-9.022-8.841 4.321-8.841 9.022zm-7.523 0c0-9.465 7.267-15.799 16.364-15.798 9.087 0 16.364 6.332 16.364 15.798s-7.278 15.789-16.364 15.789c-9.096 0-16.364-6.324-16.364-15.789zm37.31-15.046h7.149v4.706h.118c1.318-2.822 4.199-5.463 9.214-5.463 4.642 0 7.848 1.814 9.411 5.581 2.193-3.816 5.389-5.581 9.893-5.581 8.024 0 10.848 5.713 10.848 12.922v17.923h-7.523v-17.048c0-3.757-1.121-7.017-5.576-7.017-4.7 0-6.461 3.884-6.461 7.764v16.3h-7.513v-17.923c0-3.708-1.505-6.141-5.143-6.141-4.947 0-6.894 3.624-6.894 7.641v16.423h-7.523zm77.679 15.046c0-4.701-3.314-9.033-8.841-9.033-5.518 0-8.841 4.332-8.841 9.033 0 4.706 3.323 9.023 8.841 9.023 5.527 0 8.841-4.317 8.841-9.023zm-24.949 15.041h-.001v-45.423h7.523v19.166h.187c1.564-1.957 4.582-4.583 10.218-4.583 8.585 0 14.544 6.898 14.544 15.798 0 8.895-5.586 15.789-14.85 15.789-4.208 0-8.152-1.633-10.354-5.257h-.118v4.51zm43.397-18.05h15.42c-.069-4.39-2.95-7.149-7.651-7.149-4.445 0-7.208 2.817-7.769 7.149zm22.943 5.64h-22.943c.491 4.45 3.885 7.149 8.083 7.149 3.757 0 6.206-1.759 8.084-4.066l5.389 4.066c-3.501 4.318-7.965 6.009-12.715 6.009-9.106 0-16.364-6.324-16.364-15.789s7.258-15.798 16.364-15.798c8.399 0 14.102 5.891 14.102 16.364zm4.897-17.677h7.523v4.765h.128c1.632-3.447 4.946-5.522 8.899-5.522.944 0 1.819.192 2.694.447v7.268c-1.249-.31-2.448-.561-3.639-.561-7.08 0-8.083 5.959-8.083 7.592v16.099h-7.523v-30.088zm36.072 6.023c-5.272 0-8.901 3.624-8.901 8.958 0 4.765 3.767 8.713 8.841 8.713 5.576 0 8.959-3.825 8.959-8.831 0-5.216-3.451-8.84-8.899-8.84zm8.899-6.023h7.149v27.392c0 10.838-5.26 17.741-16.983 17.741-5.586 0-10.67-1.181-14.918-4.957l4.504-6.155c3.009 2.773 6.147 4.347 10.346 4.347 7.277 0 9.519-4.141 9.519-10.09v-2.198h-.107c-2.204 2.945-6.088 4.381-9.854 4.381-9.019 0-14.978-6.899-14.978-15.415 0-8.905 5.577-15.803 14.85-15.803 4.199 0 8.152 1.632 10.354 5.271h.118z" transform="translate(.523 .305)"/></svg>

<svg xmlns="http://www.w3.org/2000/svg" width="301" height="61" viewBox="0 0 301 61">
  <path d="M7.897,7.813 L7.897,19.102 L15.105,19.102 C20.376,19.102 23.002,16.845 23.002,13.521 C23.002,9.696 20.376,7.813 14.417,7.813 L7.897,7.813 Z M-7.81597009e-14,45.423 L-7.81597009e-14,1.047 L17.297,1.047 C24.004,1.047 30.907,4.116 30.907,12.204 C30.907,17.22 27.76,20.543 23.197,21.91 L23.197,22.042 C28.774,22.676 32.776,27.058 32.776,32.766 C32.776,42.423 24.378,45.423 15.98,45.423 L-7.81597009e-14,45.423 Z M7.897,25.868 L7.897,38.657 L15.164,38.657 C19.236,38.657 24.89,37.963 24.89,32.142 C24.89,27.5 21.871,25.868 15.479,25.868 L7.897,25.868 Z M38,5.68434189e-14 L45,5.68434189e-14 L45,46 L38,46 L38,5.68434189e-14 Z M58.011,30.382 C58.011,35.083 61.334,39.405 66.852,39.405 C72.369,39.405 75.683,35.082 75.683,30.382 C75.683,25.682 72.369,21.36 66.852,21.36 C61.335,21.36 58.011,25.681 58.011,30.382 Z M50.488,30.382 C50.488,20.917 57.755,14.583 66.852,14.584 C75.939,14.584 83.216,20.916 83.216,30.382 C83.216,39.848 75.938,46.171 66.852,46.171 C57.755,46.171 50.488,39.847 50.488,30.382 Z M94.131,30.382 C94.131,35.083 97.455,39.405 102.972,39.405 C108.489,39.405 111.803,35.082 111.803,30.382 C111.803,25.682 108.489,21.36 102.972,21.36 C97.455,21.36 94.131,25.681 94.131,30.382 Z M86.608,30.382 C86.608,20.917 93.875,14.583 102.972,14.584 C112.059,14.584 119.336,20.916 119.336,30.382 C119.336,39.848 112.058,46.171 102.972,46.171 C93.876,46.171 86.608,39.847 86.608,30.382 Z M123.918,15.336 L131.067,15.336 L131.067,20.042 L131.185,20.042 C132.503,17.22 135.384,14.579 140.399,14.579 C145.041,14.579 148.247,16.393 149.81,20.16 C152.003,16.344 155.199,14.579 159.703,14.579 C167.727,14.579 170.551,20.292 170.551,27.501 L170.551,45.424 L163.028,45.424 L163.028,28.376 C163.028,24.619 161.907,21.359 157.452,21.359 C152.752,21.359 150.991,25.243 150.991,29.123 L150.991,45.423 L143.478,45.423 L143.478,27.5 C143.478,23.792 141.973,21.359 138.335,21.359 C133.388,21.359 131.441,24.983 131.441,29 L131.441,45.423 L123.918,45.423 L123.918,15.336 Z M201.597,30.382 C201.597,25.681 198.283,21.349 192.756,21.349 C187.238,21.349 183.915,25.681 183.915,30.382 C183.915,35.088 187.238,39.405 192.756,39.405 C198.283,39.405 201.597,35.088 201.597,30.382 Z M176.648,45.423 L176.647,45.423 L176.647,3.55271368e-14 L184.17,3.55271368e-14 L184.17,19.166 L184.357,19.166 C185.921,17.209 188.939,14.583 194.575,14.583 C203.16,14.583 209.119,21.481 209.119,30.381 C209.119,39.276 203.533,46.17 194.269,46.17 C190.061,46.17 186.117,44.537 183.915,40.913 L183.797,40.913 L183.797,45.423 L176.648,45.423 Z M220.045,27.373 L235.465,27.373 C235.396,22.983 232.515,20.224 227.814,20.224 C223.369,20.224 220.606,23.041 220.045,27.373 Z M242.988,33.013 L220.045,33.013 C220.536,37.463 223.93,40.162 228.128,40.162 C231.885,40.162 234.334,38.403 236.212,36.096 L241.601,40.162 C238.1,44.48 233.636,46.171 228.886,46.171 C219.78,46.171 212.522,39.847 212.522,30.382 C212.522,20.917 219.78,14.584 228.886,14.584 C237.285,14.584 242.988,20.475 242.988,30.948 L242.988,33.013 Z M247.885,15.336 L255.408,15.336 L255.408,20.101 L255.536,20.101 C257.168,16.654 260.482,14.579 264.435,14.579 C265.379,14.579 266.254,14.771 267.129,15.026 L267.129,22.294 C265.88,21.984 264.681,21.733 263.49,21.733 C256.41,21.733 255.407,27.692 255.407,29.325 L255.407,45.424 L247.884,45.424 L247.884,15.336 L247.885,15.336 Z M283.957,21.359 C278.685,21.359 275.056,24.983 275.056,30.317 C275.056,35.082 278.823,39.03 283.897,39.03 C289.473,39.03 292.856,35.205 292.856,30.199 C292.856,24.983 289.405,21.359 283.957,21.359 Z M292.856,15.336 L300.005,15.336 L300.005,42.728 C300.005,53.566 294.745,60.469 283.022,60.469 C277.436,60.469 272.352,59.288 268.104,55.512 L272.608,49.357 C275.617,52.13 278.755,53.704 282.954,53.704 C290.231,53.704 292.473,49.563 292.473,43.614 L292.473,41.416 L292.366,41.416 C290.162,44.361 286.278,45.797 282.512,45.797 C273.493,45.797 267.534,38.898 267.534,30.382 C267.534,21.477 273.111,14.579 282.384,14.579 C286.583,14.579 290.536,16.211 292.738,19.85 L292.856,19.85 L292.856,15.336 Z" transform="translate(.523 .305)"/>
</svg>
